rospo-icon-theme-classic-common/symbolic/status/semi-starred-symbolic-rtl.svg

<svg height="16" width="16" xmlns="http://www.w3.org/2000/svg"><path d="m8 .38 2.13 5.5 5.87.31-4.56 3.72 1.5 5.68-4.94-3.18v-.01l-4.94 3.21 1.51-5.7-4.57-3.71 5.88-.32 2.12-5.49v-.02zm0 2.79-1.42 3.68-3.94.21 3.07 2.49-1.02 3.81 3.31-2.15z" fill="#5294e2"/></svg>

<svg xmlns="http://www.w3.org/2000/svg" width="16" height="16" version="1.1">
 <path style="fill:#5294e2" class="warning" d="M 8,0.38 10.13,5.88 16,6.19 11.44,9.91 12.94,15.59 8,12.41 V 12.4 L 3.06,15.61 4.57,9.91 0,6.2 5.88,5.88 8,0.39 V 0.37 Z M 8,3.17 6.58,6.85 2.64,7.06 5.71,9.55 4.69,13.36 8,11.21 Z"/>
</svg>
